Papirus/16x16/apps/com.github.alexhuntley.Plots.svg

<svg xmlns="http://www.w3.org/2000/svg" width="16" height="16" version="1.1">
 <path style="fill:#e4e4e4" d="M 1.0714285,2.9999999 H 13.928571 C 14.520263,2.9999999 15,3.4690755 15,4.047619 v 8.904762 C 15,13.530925 14.520263,14 13.928571,14 H 1.0714285 C 0.47973629,14 -1.0000002e-8,13.530925 -1.0000002e-8,12.952381 V 4.047619 C -1.0000002e-8,3.4690755 0.47973629,2.9999999 1.0714285,2.9999999 Z m 0,0"/>
 <path style="fill:#8bc0ff" d="M 9.9999999e-8,9.9666666 V 10.333333 H 15 V 9.9666666 Z"/>
 <path style="fill:#8bc0ff" d="M 1,2.9999999 V 14 H 1.3666667 V 2.9999999 Z"/>
 <path style="fill:#414141" d="M 9.9999999e-8,4.4380207 V 5.8710285 C 0.09028242,6.2422034 0.18323146,6.663793 0.27213552,7.1235677 0.48267567,8.2123936 0.69453615,9.4693541 0.90735689,10.508073 1.120235,11.547072 1.3305843,12.353134 1.556185,12.889974 c 0.1128003,0.26842 0.2225337,0.471956 0.383138,0.617318 0.080302,0.07268 0.1821733,0.133211 0.3043622,0.14681 0.1221883,0.0136 0.2471278,-0.02873 0.3394531,-0.09525 0.1707156,-0.123055 0.2814104,-0.299402 0.3953125,-0.512044 0.1139021,-0.212643 0.222028,-0.464237 0.3294269,-0.733333 0.2147149,-0.537986 0.4262544,-1.147868 0.6302083,-1.608464 V 10.70428 C 4.1451068,10.237513 4.3529455,9.85633 4.5367842,9.6293447 4.62875,9.5157942 4.7139175,9.4434967 4.7745444,9.4109202 c 0.060627,-0.032575 0.084981,-0.032846 0.1224612,-0.022202 0.095425,0.027133 0.3004045,0.2028411 0.5034505,0.4511719 0.2030457,0.2483309 0.4151848,0.5500359 0.648112,0.7927739 0.2179683,0.22716 0.4411165,0.436497 0.6824869,0.59082 0.2413704,0.154324 0.5126796,0.257395 0.8027994,0.225586 0.5594733,-0.06067 0.9846442,-0.48044 1.3527995,-0.657422 h 7.333e-4 c 0.4068405,-0.195831 0.7898147,-0.324189 1.1444008,-0.310091 0.364351,0.01447 0.774501,0.465329 1.223177,0.564675 0.14038,0.03109 0.279429,-0.05734 0.310808,-0.197656 0.03109,-0.140381 -0.05734,-0.279429 -0.197657,-0.310808 C 10.970461,10.44972 10.534539,9.979343 10.052557,9.960203 9.5618284,9.9406927 9.1005782,10.110308 8.6610853,10.321857 8.1839259,10.551239 7.7631377,10.900302 7.4772961,10.931297 7.3447586,10.945828 7.1933428,10.900559 7.0118014,10.784487 6.8302596,10.668416 6.6299672,10.485047 6.4252781,10.271726 6.235039,10.073475 6.0241184,9.778494 5.8043794,9.5097472 5.5846405,9.2410007 5.3667679,8.9797455 5.0395359,8.8867006 4.865433,8.8372563 4.6783523,8.8700942 4.5274914,8.9511536 4.3766307,9.0322148 4.2509528,9.1538143 4.1314627,9.3013489 3.892483,9.5964176 3.6771913,10.005818 3.4611502,10.493016 v 7.33e-4 c -0.2186301,0.49363 -0.4300989,1.105239 -0.6380858,1.626367 -0.1039936,0.260564 -0.2067923,0.498186 -0.304362,0.680339 -0.093333,0.174242 -0.1851546,0.284873 -0.2291667,0.320833 l -7.333e-4,-7.33e-4 C 2.2379824,13.074594 2.1360907,12.922782 2.037435,12.688021 1.8401237,12.218499 1.6277482,11.426674 1.4179689,10.402799 1.2081322,9.3786448 0.99655156,8.1230384 0.7841798,7.0247393 0.57180801,5.926441 0.38500201,5.0161232 0.12174487,4.5425779 0.09316554,4.4957923 0.0505653,4.4592063 9.9999999e-8,4.4380207 Z"/>
 <path fill="#ff881e" d="m 11.139459,9.8223627 1.091757,0.5932343 3.424978,-5.2482009 -1.091758,-0.5932343 z m 0,0"/>
 <path fill="#e66100" d="m 11.955147,10.271705 0.409267,0.222852 3.425546,-5.2487212 -0.409267,-0.2223329 z m 0,0"/>
 <path fill="#ffb367" d="M 11.409268,9.9750868 11,9.7527543 14.424978,4.5040335 14.834815,4.726886 Z m 0,0"/>
 <path style="fill:#dc5051" d="m 15.199465,4.000027 c -0.268162,0.00222 -0.528454,0.1279096 -0.675632,0.3535869 -0.0071,0.010745 -0.01446,0.021941 -0.02081,0.032877 l -0.304194,0.4653613 0.272174,0.1483021 c 0.06305,0.1402193 0.174339,0.2640813 0.32821,0.3477426 0.153577,0.083416 0.325732,0.1140822 0.490714,0.097894 l 0.272976,0.1483014 0.325009,-0.4982358 C 16.112754,4.7514479 15.988563,4.3069773 15.611736,4.1023065 15.4824,4.0319501 15.339939,3.9988772 15.199474,4.0000291 Z"/>
 <path style="fill:#e8ddc7" d="m 11.110429,11 1.257398,-0.510119 -1.36498,-0.7418024 z m 0,0"/>
 <path fill="#3d3846" d="m 11.110429,11 0.545878,-0.221813 -0.592554,-0.322071 z m 0,0"/>
 <path style="fill:#b7b7b7" d="m 14.035635,5.1009038 1.364412,0.7418028 0.325592,-0.4981712 -1.364983,-0.7418026 z m 0,0"/>
</svg>

<svg xmlns="http://www.w3.org/2000/svg" width="16" height="16" version="1.1">
 <rect style="fill:#e4e4e4" width="15" height="11" x="0" y="3" rx="1" ry="1"/>
 <path style="fill:#8bc0ff" d="M 1 3 L 1 10 L 0 10 L 0 10.5 L 1 10.5 L 1 14 L 1.5 14 L 1.5 10.5 L 15 10.5 L 15 10 L 1.5 10 L 1.5 3 L 1 3 z"/>
 <path style="fill:#414141" d="M 0,4.44 V 5.87 C 0.09,6.24 0.18,6.66 0.27,7.12 0.48,8.21 0.69,9.47 0.91,10.51 1.12,11.55 1.33,12.35 1.56,12.89 1.67,13.16 1.78,13.36 1.94,13.51 2.02,13.58 2.12,13.64 2.24,13.66 2.36,13.67 2.49,13.63 2.58,13.56 2.75,13.44 2.86,13.26 2.98,13.05 3.09,12.84 3.2,12.59 3.31,12.32 3.52,11.78 3.94,10.7 3.94,10.7 4.15,10.24 4.35,9.86 4.54,9.63 4.63,9.52 4.71,9.44 4.77,9.41 4.83,9.38 4.85,9.38 4.89,9.39 4.99,9.42 5.19,9.59 5.39,9.84 5.59,10.09 5.81,10.39 6.04,10.63 6.26,10.86 6.48,11.07 6.72,11.22 6.96,11.37 7.23,11.48 7.52,11.45 8.08,11.39 8.5,10.97 8.87,10.79 V 10.79 C 9.28,10.59 9.66,10.47 10.01,10.48 10.37,10.49 10.78,10.95 11.23,11.04 11.37,11.07 11.51,10.98 11.54,10.84 11.57,10.7 11.48,10.56 11.34,10.53 10.97,10.45 10.53,9.98 10.05,9.96 9.56,9.94 9.1,10.11 8.66,10.32 8.18,10.55 7.76,10.9 7.48,10.93 7.34,10.95 7.19,10.9 7.01,10.78 6.83,10.67 6.63,10.49 6.43,10.27 6.24,10.07 6.02,9.78 5.8,9.51 5.58,9.24 5.37,8.98 5.04,8.89 4.87,8.84 4.68,8.87 4.53,8.95 4.38,9.03 4.25,9.15 4.13,9.3 3.89,9.6 3.68,10.01 3.46,10.49 V 10.49 C 3.24,10.98 3.03,11.6 2.82,12.12 2.72,12.38 2.61,12.62 2.52,12.8 2.43,12.97 2.33,13.08 2.29,13.12 V 13.12 C 2.24,13.07 2.14,12.92 2.04,12.69 1.84,12.22 1.63,11.43 1.42,10.4 1.21,9.38 1,8.12 0.78,7.02 0.57,5.93 0.39,5.02 0.12,4.54 0.09,4.5 0.05,4.46 0,4.44 Z"/>
 <path fill="#ff881e" d="m 11.139,9.822 1.092,0.593 3.425,-5.248 -1.092,-0.593 z m 0,0"/>
 <path fill="#e66100" d="m 11.955,10.272 0.409,0.223 3.426,-5.249 -0.409,-0.222 z m 0,0"/>
 <path fill="#ffb367" d="M 11.409,9.975 11,9.753 14.425,4.504 14.835,4.727 Z m 0,0"/>
 <path style="fill:#dc5051" d="M 15.2,4 C 14.93,4 14.67,4.13 14.52,4.35 14.52,4.36 14.2,4.85 14.2,4.85 L 15.56,5.59 15.89,5.1 C 16.11,4.75 15.99,4.31 15.61,4.1 15.48,4.03 15.34,4 15.2,4 Z"/>
 <path style="fill:#e8ddc7" d="m 11.11,11 1.257,-0.51 -1.365,-0.742 z m 0,0"/>
 <path fill="#3d3846" d="m 11.11,11 0.546,-0.222 -0.593,-0.322 z m 0,0"/>
 <path style="fill:#b7b7b7" d="m 14.036,5.101 1.364,0.742 0.326,-0.498 -1.365,-0.742 z m 0,0"/>
</svg>
